svg/message_question.svg

<svg xmlns="http://www.w3.org/2000/svg" viewBox="0 0 24 24"><path d="M20 2H4c-1.1 0-2 .9-2 2v18l4-4h14c1.1 0 2-.9 2-2V4c0-1.1-.9-2-2-2m-7 12h-2v-2h2zm1.8-5c-.3.4-.7.6-1.1.8-.3.2-.4.3-.5.5-.2.2-.2.4-.2.7h-2c0-.5.1-.8.3-1.1.2-.2.6-.5 1.1-.8.3-.1.5-.3.6-.5s.2-.5.2-.7c0-.3-.1-.5-.3-.7s-.5-.3-.8-.3-.5.1-.7.2q-.3.15-.3.6h-2c.1-.7.4-1.3.9-1.7s1.2-.5 2.1-.5 1.7.2 2.2.6.8 1 .8 1.7q.15.6-.3 1.2"/></svg>

<svg xmlns="http://www.w3.org/2000/svg" id="mdi-message-question" viewBox="0 0 24 24"><path d="M20 2H4C2.9 2 2 2.9 2 4V22L6 18H20C21.1 18 22 17.1 22 16V4C22 2.9 21.1 2 20 2M13 14H11V12H13V14M14.8 9C14.5 9.4 14.1 9.6 13.7 9.8C13.4 10 13.3 10.1 13.2 10.3C13 10.5 13 10.7 13 11H11C11 10.5 11.1 10.2 11.3 9.9C11.5 9.7 11.9 9.4 12.4 9.1C12.7 9 12.9 8.8 13 8.6C13.1 8.4 13.2 8.1 13.2 7.9C13.2 7.6 13.1 7.4 12.9 7.2C12.7 7 12.4 6.9 12.1 6.9C11.8 6.9 11.6 7 11.4 7.1C11.2 7.2 11.1 7.4 11.1 7.7H9.1C9.2 7 9.5 6.4 10 6C10.5 5.6 11.2 5.5 12.1 5.5C13 5.5 13.8 5.7 14.3 6.1C14.8 6.5 15.1 7.1 15.1 7.8C15.2 8.2 15.1 8.6 14.8 9Z" /></svg>
